X: 20061
T: The BRIGHT ROSY MORNING
C:
%R: waltz
B: Elias Howe "The Musician's Companion" 1843 p.6 #1
S: http://imslp.org/wiki/The_Musician's_Companion_(Howe,_Elias)
Z: 2015 John Chambers <jc:trillian.mit.edu>
M: 3/4
L: 1/8
K: D
% - - - - - - - - - - - - - - - - - - - - - - - - -
A |\
df3ed | eg3fe | f2d2c2 | d4A2 |\
df3ed | eg3fe | f2d2c2 | d4 :|
|: fg |\
agfefg | a4gf | gabagf | e4A2 |\
def2ed | efg2fe | f2d2c2 | d4 :|
% - - - - - - - - - - - - - - - - - - - - - - - - -

%%sep 1 1 500

